X: 243
T: Honble. Mrs Murray of Ellibank's Strathspey
C: William Shepherd (17??-1812)
R: strathspey
B: William Shepherd "2nd Collection" 1800 p.24 #3
F: http://imslp.org/wiki/File:PMLP73094-Shepherd_Collections_HMT.pdf
Z: 2012 John Chambers <jc:trillian.mit.edu>
M: C
L: 1/16
K: Bb
d2 |\
TB4G3B F3BD3B | F3Bd3B A3ce3c |\
TB4G3B F3BD3B | e3cA3f d3BB2 ||
d2 |\
TB4G3B F3BD3B | F3Bd3B A3ce3c |\
TB4G3B F3BD3B | ABc2 Fe3 d2B2 B2 |]
fg/a/ |\
b3fd3f B3fd3f | e3gd3f c3FA2c2 |\
b3fd3f B3fd3f | e3gc3e d2B2B2 ||
ga |\
b3fd3f B3fd3f | e3gd3f c3FA2c2 |\
G3BF3B E3BD3B | E3cF3e | d2TB2B2 |]
